src/lib/packages/icons/src/assets/line/clipboard-edit.svg

<svg width="24" height="24" viewBox="0 0 24 24" fill="none" xmlns="http://www.w3.org/2000/svg">
<path d="M17 4.25H16.73C16.633 2.996 15.821 2.25 14.5 2.25H9.5C8.179 2.25 7.36702 2.996 7.27002 4.25H7C4.582 4.25 3.25 5.582 3.25 8V18C3.25 20.418 4.582 21.75 7 21.75H17C19.418 21.75 20.75 20.418 20.75 18V8C20.75 5.582 19.418 4.25 17 4.25ZM8.75 4.5C8.75 3.911 8.911 3.75 9.5 3.75H14.5C15.089 3.75 15.25 3.911 15.25 4.5V5.5C15.25 6.089 15.089 6.25 14.5 6.25H9.5C8.911 6.25 8.75 6.089 8.75 5.5V4.5ZM19.25 18C19.25 19.577 18.577 20.25 17 20.25H7C5.423 20.25 4.75 19.577 4.75 18V8C4.75 6.423 5.423 5.75 7 5.75H7.27002C7.36702 7.004 8.179 7.75 9.5 7.75H14.5C15.821 7.75 16.633 7.004 16.73 5.75H17C18.577 5.75 19.25 6.423 19.25 8V18ZM16.27 10.72L15.28 9.72998C14.97 9.41998 14.5591 9.25 14.1221 9.25C14.1211 9.25 14.1201 9.25 14.1201 9.25C13.6821 9.25 13.2689 9.42197 12.9609 9.73297L7.46997 15.249C7.32897 15.389 7.25098 15.58 7.25098 15.778V18C7.25098 18.414 7.58698 18.75 8.00098 18.75H10.2241C10.4221 18.75 10.6129 18.671 10.7529 18.531L16.269 13.04C16.58 12.731 16.75 12.319 16.751 11.881C16.751 11.443 16.58 11.031 16.27 10.72ZM14.1211 10.75C14.1471 10.75 14.185 10.757 14.219 10.791L15.209 11.781C15.243 11.815 15.25 11.854 15.25 11.88C15.25 11.906 15.243 11.944 15.209 11.978L14.573 12.611L13.3889 11.427L14.022 10.791C14.057 10.757 14.0951 10.75 14.1211 10.75ZM9.91309 17.25H8.75V16.087L12.3311 12.49L13.51 13.669L9.91309 17.25Z" fill="currentColor"/>
</svg>

<svg xmlns="http://www.w3.org/2000/svg" width="24" height="24" fill="none"><path fill="currentColor" d="M17 4.25h-.27c-.097-1.254-.909-2-2.23-2h-5c-1.321 0-2.133.746-2.23 2H7C4.582 4.25 3.25 5.582 3.25 8v10c0 2.418 1.332 3.75 3.75 3.75h10c2.418 0 3.75-1.332 3.75-3.75V8c0-2.418-1.332-3.75-3.75-3.75Zm-8.25.25c0-.589.161-.75.75-.75h5c.589 0 .75.161.75.75v1c0 .589-.161.75-.75.75h-5c-.589 0-.75-.161-.75-.75v-1ZM19.25 18c0 1.577-.673 2.25-2.25 2.25H7c-1.577 0-2.25-.673-2.25-2.25V8c0-1.577.673-2.25 2.25-2.25h.27c.097 1.254.909 2 2.23 2h5c1.321 0 2.133-.746 2.23-2H17c1.577 0 2.25.673 2.25 2.25v10Zm-2.98-7.28-.99-.99c-.31-.31-.72-.48-1.158-.48h-.002c-.438 0-.851.172-1.16.483l-5.49 5.516a.745.745 0 0 0-.219.529V18c0 .414.336.75.75.75h2.223a.749.749 0 0 0 .529-.219l5.516-5.491a1.634 1.634 0 0 0 .001-2.32Zm-2.149.03c.026 0 .064.007.098.041l.99.99a.138.138 0 0 1 0 .197l-.636.633-1.184-1.184.633-.636a.14.14 0 0 1 .1-.041Zm-4.208 6.5H8.75v-1.163l3.581-3.597 1.179 1.179-3.597 3.581Z"/></svg>
